documentation/public/assets/images/toggle-group-do-and-dont-02.svg

<svg width="194" height="80" viewBox="0 0 194 80" fill="none" xmlns="http://www.w3.org/2000/svg">
<path d="M95.0312 40H193.031V75.5C193.031 77.433 191.464 79 189.531 79H95.0312V40Z" fill="white"/>
<path d="M127.055 53.8636H129.436L132.283 59.0114H132.396L135.243 53.8636H137.624L133.391 61.1591V65.5H131.288V61.1591L127.055 53.8636ZM141.264 65.6705C140.389 65.6705 139.634 65.4886 138.997 65.125C138.365 64.7576 137.878 64.2386 137.537 63.5682C137.196 62.8939 137.026 62.1004 137.026 61.1875C137.026 60.2898 137.196 59.5019 137.537 58.8239C137.882 58.142 138.363 57.6117 138.98 57.233C139.598 56.8504 140.323 56.6591 141.156 56.6591C141.694 56.6591 142.202 56.7462 142.679 56.9205C143.16 57.0909 143.584 57.3561 143.952 57.7159C144.323 58.0758 144.615 58.5341 144.827 59.0909C145.039 59.6439 145.145 60.303 145.145 61.0682V61.6989H137.991V60.3125H143.173C143.17 59.9186 143.084 59.5682 142.918 59.2614C142.751 58.9508 142.518 58.7064 142.219 58.5284C141.923 58.3504 141.579 58.2614 141.185 58.2614C140.764 58.2614 140.395 58.3636 140.077 58.5682C139.759 58.7689 139.51 59.0341 139.332 59.3636C139.158 59.6894 139.069 60.0473 139.065 60.4375V61.6477C139.065 62.1553 139.158 62.5909 139.344 62.9545C139.529 63.3144 139.789 63.5909 140.122 63.7841C140.455 63.9735 140.846 64.0682 141.293 64.0682C141.592 64.0682 141.863 64.0265 142.105 63.9432C142.348 63.8561 142.558 63.7292 142.736 63.5625C142.914 63.3958 143.048 63.1894 143.139 62.9432L145.06 63.1591C144.938 63.6667 144.707 64.1098 144.366 64.4886C144.029 64.8636 143.598 65.1553 143.071 65.3636C142.545 65.5682 141.942 65.6705 141.264 65.6705ZM149.396 65.6761C148.843 65.6761 148.345 65.5777 147.902 65.3807C147.463 65.1799 147.114 64.8845 146.857 64.4943C146.603 64.1042 146.476 63.6231 146.476 63.0511C146.476 62.5587 146.567 62.1515 146.749 61.8295C146.93 61.5076 147.179 61.25 147.493 61.0568C147.807 60.8636 148.161 60.7178 148.555 60.6193C148.953 60.517 149.364 60.4432 149.788 60.3977C150.3 60.3447 150.714 60.2973 151.033 60.2557C151.351 60.2102 151.582 60.142 151.726 60.0511C151.874 59.9564 151.947 59.8106 151.947 59.6136V59.5795C151.947 59.1515 151.821 58.8201 151.567 58.5852C151.313 58.3504 150.947 58.233 150.47 58.233C149.966 58.233 149.567 58.3428 149.271 58.5625C148.98 58.7822 148.783 59.0417 148.68 59.3409L146.76 59.0682C146.911 58.5379 147.161 58.0947 147.51 57.7386C147.858 57.3788 148.285 57.1098 148.788 56.9318C149.292 56.75 149.849 56.6591 150.459 56.6591C150.879 56.6591 151.298 56.7083 151.714 56.8068C152.131 56.9053 152.512 57.0682 152.857 57.2955C153.201 57.5189 153.478 57.8239 153.686 58.2102C153.898 58.5966 154.004 59.0795 154.004 59.6591V65.5H152.027V64.3011H151.959C151.834 64.5436 151.658 64.7708 151.43 64.983C151.207 65.1913 150.925 65.3598 150.584 65.4886C150.247 65.6136 149.851 65.6761 149.396 65.6761ZM149.93 64.1648C150.343 64.1648 150.701 64.0833 151.004 63.9205C151.307 63.7538 151.54 63.5341 151.703 63.2614C151.87 62.9886 151.953 62.6913 151.953 62.3693V61.3409C151.889 61.3939 151.779 61.4432 151.624 61.4886C151.472 61.5341 151.302 61.5739 151.112 61.608C150.923 61.642 150.735 61.6723 150.55 61.6989C150.364 61.7254 150.203 61.7481 150.067 61.767C149.76 61.8087 149.485 61.8769 149.243 61.9716C149 62.0663 148.809 62.1989 148.669 62.3693C148.529 62.536 148.459 62.7519 148.459 63.017C148.459 63.3958 148.597 63.6818 148.874 63.875C149.15 64.0682 149.502 64.1648 149.93 64.1648ZM156.072 65.5V56.7727H158.067V58.2273H158.158C158.317 57.7235 158.589 57.3352 158.976 57.0625C159.366 56.786 159.811 56.6477 160.311 56.6477C160.425 56.6477 160.552 56.6534 160.692 56.6648C160.836 56.6723 160.955 56.6856 161.05 56.7045V58.5966C160.963 58.5663 160.824 58.5398 160.635 58.517C160.449 58.4905 160.269 58.4773 160.095 58.4773C159.72 58.4773 159.383 58.5587 159.084 58.7216C158.788 58.8807 158.555 59.1023 158.385 59.3864C158.214 59.6705 158.129 59.9981 158.129 60.3693V65.5H156.072Z" fill="#545454"/>
<path d="M95.0312 40H193.031V75.5C193.031 77.433 191.464 79 189.531 79H95.0312V40Z" stroke="#AFAFAF"/>
<path d="M99.3438 1H189.844C191.777 1 193.344 2.567 193.344 4.5V40H99.3438V1Z" fill="white"/>
<path d="M128.292 26.5L125.008 14.8636H127.275L129.371 23.4148H129.479L131.718 14.8636H133.781L136.025 23.4205H136.127L138.224 14.8636H140.491L137.207 26.5H135.127L132.798 18.3352H132.707L130.371 26.5H128.292ZM144.835 26.6705C143.96 26.6705 143.204 26.4886 142.567 26.125C141.935 25.7576 141.448 25.2386 141.107 24.5682C140.766 23.8939 140.596 23.1004 140.596 22.1875C140.596 21.2898 140.766 20.5019 141.107 19.8239C141.452 19.142 141.933 18.6117 142.55 18.233C143.168 17.8504 143.893 17.6591 144.727 17.6591C145.264 17.6591 145.772 17.7462 146.249 17.9205C146.73 18.0909 147.155 18.3561 147.522 18.7159C147.893 19.0758 148.185 19.5341 148.397 20.0909C148.609 20.6439 148.715 21.303 148.715 22.0682V22.6989H141.562V21.3125H146.744C146.74 20.9186 146.655 20.5682 146.488 20.2614C146.321 19.9508 146.088 19.7064 145.789 19.5284C145.494 19.3504 145.149 19.2614 144.755 19.2614C144.335 19.2614 143.965 19.3636 143.647 19.5682C143.329 19.7689 143.081 20.0341 142.903 20.3636C142.728 20.6894 142.639 21.0473 142.636 21.4375V22.6477C142.636 23.1553 142.728 23.5909 142.914 23.9545C143.1 24.3144 143.359 24.5909 143.692 24.7841C144.026 24.9735 144.416 25.0682 144.863 25.0682C145.162 25.0682 145.433 25.0265 145.675 24.9432C145.918 24.8561 146.128 24.7292 146.306 24.5625C146.484 24.3958 146.619 24.1894 146.71 23.9432L148.63 24.1591C148.509 24.6667 148.278 25.1098 147.937 25.4886C147.6 25.8636 147.168 26.1553 146.641 26.3636C146.115 26.5682 145.513 26.6705 144.835 26.6705ZM154.319 26.6705C153.444 26.6705 152.688 26.4886 152.052 26.125C151.419 25.7576 150.933 25.2386 150.592 24.5682C150.251 23.8939 150.08 23.1004 150.08 22.1875C150.08 21.2898 150.251 20.5019 150.592 19.8239C150.936 19.142 151.417 18.6117 152.035 18.233C152.652 17.8504 153.378 17.6591 154.211 17.6591C154.749 17.6591 155.256 17.7462 155.734 17.9205C156.215 18.0909 156.639 18.3561 157.006 18.7159C157.378 19.0758 157.669 19.5341 157.881 20.0909C158.094 20.6439 158.2 21.303 158.2 22.0682V22.6989H151.046V21.3125H156.228C156.224 20.9186 156.139 20.5682 155.972 20.2614C155.806 19.9508 155.573 19.7064 155.273 19.5284C154.978 19.3504 154.633 19.2614 154.239 19.2614C153.819 19.2614 153.45 19.3636 153.131 19.5682C152.813 19.7689 152.565 20.0341 152.387 20.3636C152.213 20.6894 152.124 21.0473 152.12 21.4375V22.6477C152.12 23.1553 152.213 23.5909 152.398 23.9545C152.584 24.3144 152.844 24.5909 153.177 24.7841C153.51 24.9735 153.9 25.0682 154.347 25.0682C154.647 25.0682 154.917 25.0265 155.16 24.9432C155.402 24.8561 155.612 24.7292 155.79 24.5625C155.969 24.3958 156.103 24.1894 156.194 23.9432L158.114 24.1591C157.993 24.6667 157.762 25.1098 157.421 25.4886C157.084 25.8636 156.652 26.1553 156.126 26.3636C155.599 26.5682 154.997 26.6705 154.319 26.6705ZM161.815 23.7614L161.809 21.2784H162.138L165.275 17.7727H167.678L163.82 22.0682H163.394L161.815 23.7614ZM159.94 26.5V14.8636H161.996V26.5H159.94ZM165.417 26.5L162.576 22.5284L163.962 21.0795L167.877 26.5H165.417Z" fill="#545454"/>
<path d="M99.3438 1H189.844C191.777 1 193.344 2.567 193.344 4.5V40H99.3438V1Z" stroke="#AFAFAF"/>
<path d="M4.15625 0.875H98.6562V39.875H0.65625V4.375C0.65625 2.442 2.22325 0.875 4.15625 0.875Z" fill="white"/>
<path d="M39.9034 26.375H35.9602V14.7386H39.983C41.1383 14.7386 42.1307 14.9716 42.9602 15.4375C43.7936 15.8996 44.4337 16.5644 44.8807 17.4318C45.3277 18.2992 45.5511 19.3371 45.5511 20.5455C45.5511 21.7576 45.3258 22.7992 44.875 23.6705C44.428 24.5417 43.7822 25.2102 42.9375 25.6761C42.0966 26.142 41.0852 26.375 39.9034 26.375ZM38.0682 24.5511H39.8011C40.6117 24.5511 41.2879 24.4034 41.8295 24.108C42.3712 23.8087 42.7784 23.3636 43.0511 22.7727C43.3239 22.178 43.4602 21.4356 43.4602 20.5455C43.4602 19.6553 43.3239 18.9167 43.0511 18.3295C42.7784 17.7386 42.375 17.2973 41.8409 17.0057C41.3106 16.7102 40.6515 16.5625 39.8636 16.5625H38.0682V24.5511ZM49.9744 26.5511C49.4214 26.5511 48.9233 26.4527 48.4801 26.2557C48.0407 26.0549 47.6922 25.7595 47.4347 25.3693C47.1809 24.9792 47.054 24.4981 47.054 23.9261C47.054 23.4337 47.1449 23.0265 47.3267 22.7045C47.5085 22.3826 47.7566 22.125 48.071 21.9318C48.3854 21.7386 48.7396 21.5928 49.1335 21.4943C49.5313 21.392 49.9422 21.3182 50.3665 21.2727C50.8778 21.2197 51.2926 21.1723 51.6108 21.1307C51.929 21.0852 52.16 21.017 52.304 20.9261C52.4517 20.8314 52.5256 20.6856 52.5256 20.4886V20.4545C52.5256 20.0265 52.3987 19.6951 52.1449 19.4602C51.8911 19.2254 51.5256 19.108 51.0483 19.108C50.5445 19.108 50.1449 19.2178 49.8494 19.4375C49.5578 19.6572 49.3608 19.9167 49.2585 20.2159L47.3381 19.9432C47.4896 19.4129 47.7396 18.9697 48.0881 18.6136C48.4366 18.2538 48.8627 17.9848 49.3665 17.8068C49.8703 17.625 50.4271 17.5341 51.0369 17.5341C51.4574 17.5341 51.8759 17.5833 52.2926 17.6818C52.7093 17.7803 53.09 17.9432 53.4347 18.1705C53.7794 18.3939 54.0559 18.6989 54.2642 19.0852C54.4763 19.4716 54.5824 19.9545 54.5824 20.5341V26.375H52.6051V25.1761H52.5369C52.4119 25.4186 52.2358 25.6458 52.0085 25.858C51.785 26.0663 51.5028 26.2348 51.1619 26.3636C50.8248 26.4886 50.429 26.5511 49.9744 26.5511ZM50.5085 25.0398C50.9214 25.0398 51.2794 24.9583 51.5824 24.7955C51.8854 24.6288 52.1184 24.4091 52.2812 24.1364C52.4479 23.8636 52.5312 23.5663 52.5312 23.2443V22.2159C52.4669 22.2689 52.357 22.3182 52.2017 22.3636C52.0502 22.4091 51.8797 22.4489 51.6903 22.483C51.5009 22.517 51.3134 22.5473 51.1278 22.5739C50.9422 22.6004 50.7813 22.6231 50.6449 22.642C50.3381 22.6837 50.0634 22.7519 49.821 22.8466C49.5786 22.9413 49.3873 23.0739 49.2472 23.2443C49.107 23.411 49.0369 23.6269 49.0369 23.892C49.0369 24.2708 49.1752 24.5568 49.4517 24.75C49.7282 24.9432 50.0805 25.0398 50.5085 25.0398ZM57.6165 29.6477C57.3362 29.6477 57.0767 29.625 56.8381 29.5795C56.6032 29.5379 56.4157 29.4886 56.2756 29.4318L56.7528 27.8295C57.0521 27.9167 57.3191 27.9583 57.554 27.9545C57.7888 27.9508 57.9953 27.8769 58.1733 27.733C58.3551 27.5928 58.5085 27.358 58.6335 27.0284L58.8097 26.5568L55.6449 17.6477H57.8267L59.8381 24.2386H59.929L61.946 17.6477H64.1335L60.6392 27.4318C60.4763 27.8939 60.2604 28.2898 59.9915 28.6193C59.7225 28.9527 59.393 29.2064 59.0028 29.3807C58.6165 29.5587 58.1544 29.6477 57.6165 29.6477Z" fill="#545454"/>
<path d="M4.15625 0.875H98.6562V39.875H0.65625V4.375C0.65625 2.442 2.22325 0.875 4.15625 0.875Z" stroke="#AFAFAF"/>
<path d="M1.53125 40.625H98.5312V78.625H4.53125C2.87439 78.625 1.53125 77.2819 1.53125 75.625V40.625Z" fill="white"/>
<path d="M26.1477 53.9886H28.7273L32.1818 62.4205H32.3182L35.7727 53.9886H38.3523V65.625H36.3295V57.6307H36.2216L33.0057 65.5909H31.4943L28.2784 57.6136H28.1705V65.625H26.1477V53.9886ZM44.3636 65.7955C43.5114 65.7955 42.7727 65.608 42.1477 65.233C41.5227 64.858 41.0379 64.3333 40.6932 63.6591C40.3523 62.9848 40.1818 62.197 40.1818 61.2955C40.1818 60.3939 40.3523 59.6042 40.6932 58.9261C41.0379 58.2481 41.5227 57.7216 42.1477 57.3466C42.7727 56.9716 43.5114 56.7841 44.3636 56.7841C45.2159 56.7841 45.9545 56.9716 46.5795 57.3466C47.2045 57.7216 47.6875 58.2481 48.0284 58.9261C48.3731 59.6042 48.5455 60.3939 48.5455 61.2955C48.5455 62.197 48.3731 62.9848 48.0284 63.6591C47.6875 64.3333 47.2045 64.858 46.5795 65.233C45.9545 65.608 45.2159 65.7955 44.3636 65.7955ZM44.375 64.1477C44.8371 64.1477 45.2235 64.0208 45.5341 63.767C45.8447 63.5095 46.0758 63.1648 46.2273 62.733C46.3826 62.3011 46.4602 61.8201 46.4602 61.2898C46.4602 60.7557 46.3826 60.2727 46.2273 59.8409C46.0758 59.4053 45.8447 59.0587 45.5341 58.8011C45.2235 58.5436 44.8371 58.4148 44.375 58.4148C43.9015 58.4148 43.5076 58.5436 43.1932 58.8011C42.8826 59.0587 42.6496 59.4053 42.4943 59.8409C42.3428 60.2727 42.267 60.7557 42.267 61.2898C42.267 61.8201 42.3428 62.3011 42.4943 62.733C42.6496 63.1648 42.8826 63.5095 43.1932 63.767C43.5076 64.0208 43.9015 64.1477 44.375 64.1477ZM52.348 60.5114V65.625H50.2912V56.8977H52.2571V58.3807H52.3594C52.5601 57.892 52.8802 57.5038 53.3196 57.2159C53.7628 56.928 54.3101 56.7841 54.9616 56.7841C55.5639 56.7841 56.0885 56.9129 56.5355 57.1705C56.9863 57.428 57.3348 57.8011 57.581 58.2898C57.831 58.7784 57.9541 59.3712 57.9503 60.0682V65.625H55.8935V60.3864C55.8935 59.803 55.742 59.3466 55.4389 59.017C55.1397 58.6875 54.7249 58.5227 54.1946 58.5227C53.8348 58.5227 53.5147 58.6023 53.2344 58.7614C52.9579 58.9167 52.7401 59.142 52.581 59.4375C52.4257 59.733 52.348 60.0909 52.348 60.5114ZM64.3991 56.8977V58.4886H59.3821V56.8977H64.3991ZM60.6207 54.8068H62.6776V63C62.6776 63.2765 62.7192 63.4886 62.8026 63.6364C62.8897 63.7803 63.0033 63.8788 63.1435 63.9318C63.2836 63.9848 63.4389 64.0114 63.6094 64.0114C63.7382 64.0114 63.8556 64.0019 63.9616 63.983C64.0715 63.964 64.1548 63.947 64.2116 63.9318L64.5582 65.5398C64.4484 65.5777 64.2912 65.6193 64.0866 65.6648C63.8859 65.7102 63.6397 65.7367 63.348 65.7443C62.8329 65.7595 62.3688 65.6818 61.956 65.5114C61.5431 65.3371 61.2154 65.0682 60.973 64.7045C60.7344 64.3409 60.617 63.8864 60.6207 63.3409V54.8068ZM68.3636 60.5114V65.625H66.3068V53.9886H68.3182V58.3807H68.4205C68.625 57.8883 68.9413 57.5 69.3693 57.2159C69.8011 56.928 70.3504 56.7841 71.017 56.7841C71.6231 56.7841 72.1515 56.911 72.6023 57.1648C73.053 57.4186 73.4015 57.7898 73.6477 58.2784C73.8977 58.767 74.0227 59.3636 74.0227 60.0682V65.625H71.9659V60.3864C71.9659 59.7992 71.8144 59.3428 71.5114 59.017C71.2121 58.6875 70.7917 58.5227 70.25 58.5227C69.8864 58.5227 69.5606 58.6023 69.2727 58.7614C68.9886 58.9167 68.7652 59.142 68.6023 59.4375C68.4432 59.733 68.3636 60.0909 68.3636 60.5114Z" fill="#0F67F5"/>
<path d="M1.53125 40.625H98.5312V78.625H4.53125C2.87439 78.625 1.53125 77.2819 1.53125 75.625V40.625Z" stroke="#0F67F5" stroke-width="2"/>
</svg>

<svg width="194" height="80" fill="none" xmlns="http://www.w3.org/2000/svg"><path d="M95.03 40h98v35.5a3.5 3.5 0 0 1-3.5 3.5h-94.5V40Z" fill="#fff"/><path d="M127.06 53.86h2.38l2.84 5.15h.12l2.84-5.15h2.38l-4.23 7.3v4.34h-2.1v-4.34l-4.23-7.3Zm14.2 11.81a4.5 4.5 0 0 1-2.26-.55 3.7 3.7 0 0 1-1.46-1.55 5.21 5.21 0 0 1-.51-2.38c0-.9.17-1.69.5-2.37a3.87 3.87 0 0 1 3.63-2.16c.53 0 1.04.09 1.52.26s.9.44 1.27.8c.37.36.67.81.88 1.37.2.55.31 1.21.31 1.98v.63H138v-1.4h5.18a1.96 1.96 0 0 0-.95-1.78c-.3-.18-.64-.27-1.03-.27a2 2 0 0 0-1.11.3c-.32.2-.57.47-.75.8a2.3 2.3 0 0 0-.27 1.08v1.2c0 .52.1.95.28 1.31.19.36.45.64.78.83.34.2.73.29 1.17.29.3 0 .57-.04.81-.13a1.65 1.65 0 0 0 1.04-1l1.92.22a3 3 0 0 1-.7 1.33c-.33.37-.76.67-1.29.87-.53.2-1.13.31-1.8.31Zm8.14 0c-.56 0-1.06-.1-1.5-.29-.44-.2-.79-.5-1.04-.89a2.59 2.59 0 0 1-.38-1.44c0-.5.09-.9.27-1.22.18-.32.43-.58.74-.77.32-.2.67-.34 1.06-.44.4-.1.81-.18 1.24-.22l1.24-.14c.32-.05.55-.12.7-.2.14-.1.22-.25.22-.45v-.03c0-.43-.13-.76-.38-1a1.6 1.6 0 0 0-1.1-.35c-.5 0-.9.11-1.2.33-.29.22-.49.48-.59.78l-1.92-.27a3.06 3.06 0 0 1 2.03-2.14 5.43 5.43 0 0 1 2.93-.13c.41.1.8.27 1.14.5.34.22.62.52.83.91.2.39.31.87.31 1.45v5.84h-1.97v-1.2h-.07a2.5 2.5 0 0 1-1.38 1.19c-.33.12-.73.19-1.18.19Zm.53-1.5c.41 0 .77-.09 1.07-.25.3-.17.54-.39.7-.66.17-.27.25-.57.25-.9v-1.02a.96.96 0 0 1-.33.15l-.5.12a16.2 16.2 0 0 1-1.05.16c-.31.04-.58.1-.83.2-.24.1-.43.23-.57.4a.97.97 0 0 0-.21.65c0 .38.14.66.41.85.28.2.63.3 1.06.3Zm6.14 1.33v-8.73h2v1.46h.09a2.17 2.17 0 0 1 2.15-1.58 4.73 4.73 0 0 1 .74.05v1.9a3.83 3.83 0 0 0-.96-.12c-.37 0-.7.08-1 .24a1.78 1.78 0 0 0-.96 1.65v5.13h-2.06Z" fill="#545454"/><path d="M95.03 40h98v35.5a3.5 3.5 0 0 1-3.5 3.5h-94.5V40Z" stroke="#AFAFAF"/><path d="M99.34 1h90.5a3.5 3.5 0 0 1 3.5 3.5V40h-94V1Z" fill="#fff"/><path d="M128.3 26.5 125 14.86h2.28l2.1 8.55h.1l2.24-8.55h2.06l2.25 8.56h.1l2.1-8.56h2.26l-3.28 11.64h-2.08l-2.33-8.16h-.1l-2.33 8.16h-2.08Zm16.53.17a4.5 4.5 0 0 1-2.26-.55 3.7 3.7 0 0 1-1.46-1.55 5.21 5.21 0 0 1-.51-2.38c0-.9.17-1.69.5-2.37a3.87 3.87 0 0 1 3.63-2.16c.53 0 1.04.09 1.52.26s.9.44 1.27.8c.37.36.66.81.88 1.37.2.55.31 1.21.31 1.98v.63h-7.15v-1.4h5.18a1.96 1.96 0 0 0-.95-1.78c-.3-.18-.64-.27-1.03-.27a2 2 0 0 0-1.11.3 2.13 2.13 0 0 0-1.01 1.88v1.2c0 .52.09.95.27 1.31.19.36.45.64.78.83.34.2.73.29 1.17.29.3 0 .57-.04.81-.13a1.65 1.65 0 0 0 1.04-1l1.92.22c-.12.5-.35.95-.7 1.33-.33.37-.76.67-1.29.87-.52.2-1.13.31-1.8.31Zm9.49 0a4.5 4.5 0 0 1-2.27-.55 3.7 3.7 0 0 1-1.46-1.55 5.21 5.21 0 0 1-.51-2.38c0-.9.17-1.69.51-2.37a3.86 3.86 0 0 1 3.62-2.16c.54 0 1.05.09 1.52.26a3.5 3.5 0 0 1 2.15 2.17c.21.55.32 1.21.32 1.98v.63h-7.15v-1.4h5.18c0-.4-.1-.74-.26-1.05a1.89 1.89 0 0 0-1.73-1 2 2 0 0 0-1.1.3c-.33.2-.57.47-.75.8a2.3 2.3 0 0 0-.27 1.08v1.2c0 .52.1.95.28 1.31a2 2 0 0 0 .78.83c.33.2.72.29 1.17.29.3 0 .57-.04.81-.13.24-.08.45-.21.63-.38.18-.16.31-.37.4-.62l1.92.22a3.03 3.03 0 0 1-1.99 2.2c-.52.2-1.12.31-1.8.31Zm7.5-2.9-.01-2.5h.33l3.14-3.5h2.4l-3.86 4.3h-.43l-1.57 1.7Zm-1.88 2.73V14.86H162V26.5h-2.06Zm5.48 0-2.84-3.97 1.38-1.45 3.92 5.42h-2.46Z" fill="#545454"/><path d="M99.34 1h90.5a3.5 3.5 0 0 1 3.5 3.5V40h-94V1Z" stroke="#AFAFAF"/><path d="M4.16.88h94.5v39h-98V4.38a3.5 3.5 0 0 1 3.5-3.5Z" fill="#fff"/><path d="M39.9 26.38h-3.94V14.73h4.02c1.16 0 2.15.23 2.98.7a4.67 4.67 0 0 1 1.92 2c.45.86.67 1.9.67 3.1 0 1.22-.22 2.26-.67 3.13a4.67 4.67 0 0 1-1.94 2c-.84.47-1.85.7-3.04.7Zm-1.83-1.83h1.73a4.2 4.2 0 0 0 2.03-.44c.54-.3.95-.75 1.22-1.34.27-.6.41-1.33.41-2.22 0-.9-.14-1.63-.4-2.22A2.79 2.79 0 0 0 41.83 17a4.02 4.02 0 0 0-1.98-.45h-1.8v8Zm11.9 2c-.55 0-1.05-.1-1.49-.3-.44-.2-.79-.5-1.05-.88a2.6 2.6 0 0 1-.38-1.44c0-.5.1-.9.28-1.23.18-.32.43-.57.74-.77.32-.2.67-.34 1.06-.44.4-.1.81-.17 1.24-.22l1.24-.14c.32-.04.55-.11.7-.2a.5.5 0 0 0 .22-.44v-.04c0-.42-.13-.75-.39-.99-.25-.23-.61-.35-1.1-.35-.5 0-.9.1-1.2.33-.28.22-.48.48-.58.78l-1.92-.28a3.07 3.07 0 0 1 2.03-2.13 5.44 5.44 0 0 1 2.93-.13c.4.1.79.26 1.13.5.35.21.63.52.83.9.22.4.32.87.32 1.45v5.84h-1.97v-1.2h-.07a2.51 2.51 0 0 1-1.38 1.2c-.34.12-.73.18-1.19.18Zm.54-1.51c.41 0 .77-.08 1.07-.24.3-.17.54-.4.7-.66.17-.28.25-.57.25-.9v-1.02a.97.97 0 0 1-.33.14 16.16 16.16 0 0 1-1.56.28c-.3.04-.58.11-.82.2-.24.1-.43.23-.57.4a.97.97 0 0 0-.21.65c0 .38.14.67.41.86.28.2.63.29 1.06.29Zm7.1 4.6a4.16 4.16 0 0 1-1.33-.2l.47-1.61c.3.09.57.13.8.12a.9.9 0 0 0 .62-.22c.19-.14.34-.37.46-.7l.18-.47-3.17-8.91h2.19l2 6.59h.1l2.02-6.6h2.18l-3.5 9.8c-.15.45-.37.85-.64 1.18-.27.33-.6.59-.99.76a3.3 3.3 0 0 1-1.38.27Z" fill="#545454"/><path d="M4.16.88h94.5v39h-98V4.38a3.5 3.5 0 0 1 3.5-3.5Z" stroke="#AFAFAF"/><path d="M1.53 40.63h97v38h-94a3 3 0 0 1-3-3v-35Z" fill="#fff"/><path d="M26.15 53.99h2.58l3.45 8.43h.14l3.45-8.43h2.58v11.63h-2.02v-7.99h-.1L33 65.6h-1.52l-3.21-7.98h-.11v8.02h-2.02V53.98Zm18.21 11.8c-.85 0-1.59-.18-2.21-.56a3.82 3.82 0 0 1-1.46-1.57 5.17 5.17 0 0 1-.5-2.36c0-.9.16-1.7.5-2.37.35-.68.83-1.2 1.46-1.58a4.23 4.23 0 0 1 2.21-.57c.86 0 1.6.2 2.22.57.62.37 1.1.9 1.45 1.58.34.67.52 1.46.52 2.37 0 .9-.18 1.68-.52 2.36a3.8 3.8 0 0 1-1.45 1.57c-.63.38-1.36.57-2.22.57Zm.02-1.64c.46 0 .84-.13 1.15-.38.31-.26.55-.6.7-1.04.15-.43.23-.91.23-1.44 0-.53-.08-1.02-.23-1.45a2.3 2.3 0 0 0-.7-1.04c-.3-.26-.7-.39-1.16-.39-.47 0-.86.13-1.18.4-.3.25-.54.6-.7 1.03-.15.43-.22.92-.22 1.45 0 .53.07 1.01.22 1.44.16.43.4.78.7 1.04.32.25.71.38 1.19.38Zm7.97-3.64v5.12h-2.06V56.9h1.97v1.48h.1c.2-.49.52-.88.96-1.16.44-.3.99-.44 1.64-.44.6 0 1.13.13 1.58.39.45.26.8.63 1.04 1.12.25.49.37 1.08.37 1.78v5.55h-2.06V60.4c0-.59-.15-1.04-.45-1.37a1.6 1.6 0 0 0-1.25-.5c-.36 0-.68.08-.96.24a1.7 1.7 0 0 0-.65.68c-.15.3-.23.65-.23 1.07ZM64.4 56.9v1.59h-5.02v-1.6h5.02Zm-3.78-2.1h2.06V63c0 .28.04.49.12.64.09.14.2.24.34.3.14.04.3.07.47.07a2.01 2.01 0 0 0 .6-.08l.35 1.61a4.59 4.59 0 0 1-1.21.2c-.52.02-.98-.06-1.4-.23a2.17 2.17 0 0 1-.98-.8 2.4 2.4 0 0 1-.35-1.37v-8.53Zm7.74 5.71v5.12h-2.05V53.98h2v4.4h.11c.2-.5.52-.89.95-1.17.43-.3.98-.44 1.65-.44.6 0 1.13.13 1.58.38.45.26.8.63 1.05 1.12.25.49.37 1.08.37 1.79v5.55h-2.05V60.4c0-.6-.16-1.05-.46-1.37-.3-.33-.72-.5-1.26-.5a2 2 0 0 0-.98.24c-.28.16-.5.38-.67.68-.16.3-.24.65-.24 1.07Z" fill="#0F67F5"/><path d="M1.53 40.63h97v38h-94a3 3 0 0 1-3-3v-35Z" stroke="#0F67F5" stroke-width="2"/></svg>
